svgs/regular/pallet.svg

<svg xmlns="http://www.w3.org/2000/svg" viewBox="0 0 640 512"><!--! Font Awesome Pro 6.6.0 by @fontawesome - https://fontawesome.com License - https://fontawesome.com/license (Commercial License) Copyright 2024 Fonticons, Inc. --><path d="M24 320c-13.3 0-24 10.7-24 24s10.7 24 24 24l40 0 0 96-40 0c-13.3 0-24 10.7-24 24s10.7 24 24 24l64 0 232 0 232 0 64 0c13.3 0 24-10.7 24-24s-10.7-24-24-24l-40 0 0-96 40 0c13.3 0 24-10.7 24-24s-10.7-24-24-24l-64 0-232 0L88 320l-64 0zm88 48l184 0 0 96-184 0 0-96zm232 0l184 0 0 96-184 0 0-96z"/></svg>

<svg xmlns="http://www.w3.org/2000/svg" viewBox="0 0 640 512"><!--! Font Awesome Pro 6.4.0 by @fontawesome - https://fontawesome.com License - https://fontawesome.com/license (Commercial License) Copyright 2023 Fonticons, Inc. --><path d="M24 320c-13.3 0-24 10.7-24 24s10.7 24 24 24H64v96H24c-13.3 0-24 10.7-24 24s10.7 24 24 24H88 320 552h64c13.3 0 24-10.7 24-24s-10.7-24-24-24H576V368h40c13.3 0 24-10.7 24-24s-10.7-24-24-24H552 320 88 24zm88 48H296v96H112V368zm232 0H528v96H344V368z"/></svg>
